modules/themify-icons/icons/layout-accordion-merged.svg

<?xml version="1.0" encoding="utf-8"?>
<!-- Generated by IcoMoon.io -->
<!DOCTYPE svg PUBLIC "-//W3C//DTD SVG 1.1//EN" "http://www.w3.org/Graphics/SVG/1.1/DTD/svg11.dtd">
<svg version="1.1" xmlns="http://www.w3.org/2000/svg" xmlns:xlink="http://www.w3.org/1999/xlink" width="17" height="17" viewBox="0 0 17 17">
<g>
</g>
	<path d="M0 0v17h17v-17h-17zM16 1v9h-15v-9h15zM16 11v2h-15v-2h15zM1 16v-2h15v2h-15z" fill="#000000" />
</svg>

<svg xmlns="http://www.w3.org/2000/svg" width="17" height="17"><path d="M0 0v17h17V0H0zm16 1v9H1V1h15zm0 10v2H1v-2h15zM1 16v-2h15v2H1z"/></svg>
